communes/876.svg

<?xml version="1.0" encoding="UTF-8" standalone="no"?>
<svg
   xmlns:dc="http://purl.org/dc/elements/1.1/"
   xmlns:cc="http://creativecommons.org/ns#"
   xmlns:rdf="http://www.w3.org/1999/02/22-rdf-syntax-ns#"
   xmlns:svg="http://www.w3.org/2000/svg"
   xmlns="http://www.w3.org/2000/svg"
   xmlns:xlink="http://www.w3.org/1999/xlink"
   xmlns:sodipodi="http://sodipodi.sourceforge.net/DTD/sodipodi-0.dtd"
   xmlns:inkscape="http://www.inkscape.org/namespaces/inkscape"
   height="763"
   width="603"
   version="1.0"
   id="svg20"
   sodipodi:version="0.32"
   inkscape:version="0.46"
   sodipodi:docname="Mühlethurnen-coat of arms.svg"
   sodipodi:docbase="C:\Users\Camilo\Documents\Escudos de Suiza"
   inkscape:output_extension="org.inkscape.output.svg.inkscape">
  <metadata
     id="metadata31">
    <rdf:RDF>
      <cc:Work
         rdf:about="">
        <dc:format>image/svg+xml</dc:format>
        <dc:type
           rdf:resource="http://purl.org/dc/dcmitype/StillImage" />
        <dc:date>04-AUG-2009</dc:date>
        <dc:creator>
          <cc:Agent>
            <dc:title>Juan G (aliman5040)</dc:title>
          </cc:Agent>
        </dc:creator>
        <cc:license
           rdf:resource="http://creativecommons.org/licenses/GPL/2.0/" />
        <dc:coverage />
        <dc:description></dc:description>
        <dc:subject>
          <rdf:Bag />
        </dc:subject>
        <dc:language></dc:language>
        <dc:title>Wappen Gemeinde Mühlethurnen</dc:title>
      </cc:Work>
      <cc:License
         rdf:about="http://creativecommons.org/licenses/GPL/2.0/">
        <cc:permits
           rdf:resource="http://web.resource.org/cc/Reproduction" />
        <cc:permits
           rdf:resource="http://web.resource.org/cc/Distribution" />
        <cc:requires
           rdf:resource="http://web.resource.org/cc/Notice" />
        <cc:permits
           rdf:resource="http://web.resource.org/cc/DerivativeWorks" />
        <cc:requires
           rdf:resource="http://web.resource.org/cc/ShareAlike" />
        <cc:requires
           rdf:resource="http://web.resource.org/cc/SourceCode" />
      </cc:License>
    </rdf:RDF>
  </metadata>
  <defs
     id="defs29">
    <inkscape:perspective
       sodipodi:type="inkscape:persp3d"
       inkscape:vp_x="0 : 381.5 : 1"
       inkscape:vp_y="0 : 1000 : 0"
       inkscape:vp_z="603 : 381.5 : 1"
       inkscape:persp3d-origin="301.5 : 254.33333 : 1"
       id="perspective5149" />
    <linearGradient
       id="linearGradient2893">
      <stop
         style="stop-color:#ffffff;stop-opacity:0.3137255;"
         offset="0"
         id="stop2895" />
      <stop
         id="stop2897"
         offset="0.19"
         style="stop-color:#ffffff;stop-opacity:0.25098041;" />
      <stop
         style="stop-color:#6b6b6b;stop-opacity:0.1254902;"
         offset="0.60000002"
         id="stop2901" />
      <stop
         style="stop-color:#000000;stop-opacity:0.1254902;"
         offset="1"
         id="stop2899" />
    </linearGradient>
    <radialGradient
       inkscape:collect="always"
       xlink:href="#linearGradient2893"
       id="radialGradient3236"
       gradientUnits="userSpaceOnUse"
       gradientTransform="matrix(1.215027,1.531577e-24,1.464684e-23,1.266667,-839.1924,-490.4894)"
       cx="858.04236"
       cy="579.93323"
       fx="858.04236"
       fy="579.93323"
       r="300" />
    <inkscape:perspective
       id="perspective5197"
       inkscape:persp3d-origin="372.04724 : 350.78739 : 1"
       inkscape:vp_z="744.09448 : 526.18109 : 1"
       inkscape:vp_y="0 : 1000 : 0"
       inkscape:vp_x="0 : 526.18109 : 1"
       sodipodi:type="inkscape:persp3d" />
    <inkscape:perspective
       id="perspective8046"
       inkscape:persp3d-origin="372.04724 : 350.78739 : 1"
       inkscape:vp_z="744.09448 : 526.18109 : 1"
       inkscape:vp_y="0 : 1000 : 0"
       inkscape:vp_x="0 : 526.18109 : 1"
       sodipodi:type="inkscape:persp3d" />
    <inkscape:perspective
       id="perspective9383"
       inkscape:persp3d-origin="372.04724 : 350.78739 : 1"
       inkscape:vp_z="744.09448 : 526.18109 : 1"
       inkscape:vp_y="0 : 1000 : 0"
       inkscape:vp_x="0 : 526.18109 : 1"
       sodipodi:type="inkscape:persp3d" />
    <inkscape:perspective
       id="perspective9513"
       inkscape:persp3d-origin="372.04724 : 350.78739 : 1"
       inkscape:vp_z="744.09448 : 526.18109 : 1"
       inkscape:vp_y="0 : 1000 : 0"
       inkscape:vp_x="0 : 526.18109 : 1"
       sodipodi:type="inkscape:persp3d" />
    <inkscape:perspective
       id="perspective9597"
       inkscape:persp3d-origin="372.04724 : 350.78739 : 1"
       inkscape:vp_z="744.09448 : 526.18109 : 1"
       inkscape:vp_y="0 : 1000 : 0"
       inkscape:vp_x="0 : 526.18109 : 1"
       sodipodi:type="inkscape:persp3d" />
    <inkscape:perspective
       id="perspective9760"
       inkscape:persp3d-origin="372.04724 : 350.78739 : 1"
       inkscape:vp_z="744.09448 : 526.18109 : 1"
       inkscape:vp_y="0 : 1000 : 0"
       inkscape:vp_x="0 : 526.18109 : 1"
       sodipodi:type="inkscape:persp3d" />
  </defs>
  <sodipodi:namedview
     inkscape:window-height="750"
     inkscape:window-width="1280"
     inkscape:pageshadow="2"
     inkscape:pageopacity="0.0"
     guidetolerance="10.0"
     gridtolerance="10.0"
     objecttolerance="10.0"
     borderopacity="1.0"
     bordercolor="#666666"
     pagecolor="#ffffff"
     id="base"
     inkscape:zoom="0.46138522"
     inkscape:cx="369.90396"
     inkscape:cy="347.98546"
     inkscape:window-x="-8"
     inkscape:window-y="-8"
     inkscape:current-layer="layer2"
     showgrid="true"
     showguides="true"
     inkscape:guide-bbox="true">
    <inkscape:grid
       type="xygrid"
       id="grid5151" />
  </sodipodi:namedview>
  <g
     inkscape:groupmode="layer"
     id="layer1"
     inkscape:label="Fond écu"
     style="display:inline"
     sodipodi:insensitive="true">
    <path
       id="path1899"
       d="M 1.5,1.49998 L 1.5,460.3679 C 1.5,626.6785 135.81456,761.5 301.49999,761.5 C 467.18543,761.5 601.5,626.6785 601.5,460.3679 L 601.5,1.49998 L 1.5,1.49998 z"
       style="fill:#e20909;fill-opacity:1" />
  </g>
  <g
     inkscape:groupmode="layer"
     id="layer2"
     inkscape:label="Meubles"
     style="display:inline"
     sodipodi:insensitive="true">
    <path
       style="fill:#ffffff;fill-opacity:1;fill-rule:evenodd;stroke:#000000;stroke-width:4.78999996;stroke-miterlimit:4;stroke-dasharray:none;stroke-opacity:1"
       d="M 24.463815,458.8987 C 24.459155,459.55757 24.463815,460.20768 24.463815,460.86753 C 24.463815,487.7827 28.411105,513.86417 35.576765,538.48316 L 88.691405,498.05653 C 94.657025,532.37219 108.58949,563.8603 128.72427,590.59151 L 62.440345,600.52316 C 86.554535,641.769 120.89052,676.18513 162.06311,700.32093 L 172.9573,634.47453 C 199.11751,653.90413 229.74253,667.4623 263.08594,673.45735 L 224.32187,727.0095 C 248.85382,734.16004 274.64889,738.12245 301.49998,738.12245 C 324.04817,738.12245 345.96412,735.34275 366.95262,730.24713 L 329.19485,675.07616 C 360.82863,671.02017 400.14068,657.34971 425.97375,641.12479 L 430.61144,706.00866 C 475.51004,682.23955 513.08841,646.36208 539.15956,602.9295 L 474.05694,591.42279 C 498.856,561.9099 514.1109,530.78003 518.33372,497.83777 L 567.24819,539.66445 C 574.66387,514.68749 578.53615,488.24098 578.53615,460.86753 C 578.53615,460.20829 578.54089,459.55692 578.53615,458.8987 L 319.70072,458.8987 L 319.70072,479.24327 L 283.29925,479.24327 L 283.29925,458.8987 L 24.463815,458.8987 z M 152.96275,495.65018 L 231.58467,495.65018 L 231.58467,530.78285 L 269.16743,530.78285 L 269.16743,610.1923 C 211.68694,597.74181 166.28139,552.82584 152.96275,495.65018 z M 371.4153,495.65018 L 450.03722,495.65018 C 436.71854,552.82584 391.31296,597.74182 333.83254,610.1923 L 333.83254,530.78285 L 371.4153,530.78285 L 371.4153,495.65018 z"
       id="rect9669" />
    <g
       id="g9807">
      <path
         sodipodi:nodetypes="ccccccccccccccccccc"
         id="path9789"
         d="M 475.19191,133.73643 L 503.74402,443.05101 L 99.255723,443.05101 L 123.04915,133.73643 L 475.19191,133.73643 L 123.04915,133.73643 L 84.979666,133.73643 L 84.979666,29.045337 L 171.5878,29.045337 L 171.5878,62.356139 L 256.60239,62.356139 L 256.60239,29.045337 L 344.80411,29.045337 L 344.80411,62.356139 L 432.36374,62.356139 L 432.36374,29.045337 L 518.02037,29.045337 L 518.02008,133.73643 L 475.19191,133.73643 z"
         style="fill:#ffffff;fill-opacity:1;fill-rule:evenodd;stroke:#000000;stroke-width:4.75868607;stroke-miterlimit:4;stroke-dasharray:none;stroke-opacity:1" />
      <rect
         y="162.29552"
         x="192.21768"
         height="81.229164"
         width="39.897148"
         id="rect9791"
         style="fill:#ffffff;fill-opacity:1;fill-rule:evenodd;stroke:#000000;stroke-width:3.5830617;stroke-miterlimit:4;stroke-dasharray:none;stroke-opacity:1" />
      <rect
         style="fill:#ffffff;fill-opacity:1;fill-rule:evenodd;stroke:#000000;stroke-width:3.5830617;stroke-miterlimit:4;stroke-dasharray:none;stroke-opacity:1"
         id="rect9793"
         width="39.897148"
         height="81.229164"
         x="365.74213"
         y="162.28854" />
      <path
         sodipodi:nodetypes="czzcc"
         id="path9795"
         d="M 346.70739,443.05101 L 346.70739,333.60123 C 346.70739,290.77306 251.53367,290.77306 251.53367,333.60123 L 251.53367,443.05101 L 346.70739,443.05101 z"
         style="fill:#ffffff;fill-opacity:1;fill-rule:evenodd;stroke:#000000;stroke-width:4.75868607;stroke-miterlimit:4;stroke-dasharray:none;stroke-opacity:1" />
    </g>
  </g>
  <g
     inkscape:groupmode="layer"
     id="layer3"
     inkscape:label="Reflet final"
     style="display:inline"
     sodipodi:insensitive="true">
    <path
       style="fill:url(#radialGradient3236);fill-opacity:1"
       d="M 1.5,1.5 L 1.5,460.3679 C 1.5,626.67854 135.81454,761.5 301.49993,761.5 C 467.1854,761.5 601.5,626.67854 601.5,460.3679 L 601.5,1.5 L 1.5,1.5 z "
       id="path2346" />
  </g>
  <g
     inkscape:groupmode="layer"
     id="layer4"
     inkscape:label="Contour final"
     style="display:inline"
     sodipodi:insensitive="true">
    <path
       style="fill:none;fill-opacity:1;stroke:#000000;stroke-width:3;stroke-miterlimit:4;stroke-dasharray:none;stroke-opacity:1"
       d="M 1.5,1.5 L 1.5,460.36794 C 1.5,626.67854 135.81454,761.5 301.49993,761.5 C 467.1854,761.5 601.5,626.67854 601.5,460.36794 L 601.5,1.5 L 1.5,1.5 z"
       id="path3239" />
  </g>
</svg>

<?xml version="1.0" encoding="UTF-8"?>
<svg version="1.0" viewBox="0 0 603 763" xmlns="http://www.w3.org/2000/svg" xmlns:cc="http://creativecommons.org/ns#" xmlns:dc="http://purl.org/dc/elements/1.1/" xmlns:rdf="http://www.w3.org/1999/02/22-rdf-syntax-ns#" xmlns:xlink="http://www.w3.org/1999/xlink">
<metadata>
<rdf:RDF>
<cc:Work rdf:about="">
<dc:format>image/svg+xml</dc:format>
<dc:type rdf:resource="http://purl.org/dc/dcmitype/StillImage"/>
<dc:date>04-AUG-2009</dc:date>
<dc:creator>
<cc:Agent>
<dc:title>Juan G (aliman5040)</dc:title>
</cc:Agent>
</dc:creator>
<cc:license rdf:resource="http://creativecommons.org/licenses/GPL/2.0/"/>
<dc:coverage/>
<dc:description/>
<dc:subject>
<rdf:Bag/>
</dc:subject>
<dc:language/>
<dc:title>Wappen Gemeinde Mühlethurnen</dc:title>
</cc:Work>
<cc:License rdf:about="http://creativecommons.org/licenses/GPL/2.0/">
<cc:permits rdf:resource="http://web.resource.org/cc/Reproduction"/>
<cc:permits rdf:resource="http://web.resource.org/cc/Distribution"/>
<cc:requires rdf:resource="http://web.resource.org/cc/Notice"/>
<cc:permits rdf:resource="http://web.resource.org/cc/DerivativeWorks"/>
<cc:requires rdf:resource="http://web.resource.org/cc/ShareAlike"/>
<cc:requires rdf:resource="http://web.resource.org/cc/SourceCode"/>
</cc:License>
</rdf:RDF>
</metadata>
<defs>
<radialGradient id="a" cx="858.04" cy="579.93" r="300" gradientTransform="matrix(1.215 1.5316e-24 1.4647e-23 1.2667 -839.19 -490.49)" gradientUnits="userSpaceOnUse">
<stop stop-color="#fff" stop-opacity=".31373" offset="0"/>
<stop stop-color="#fff" stop-opacity=".25098" offset=".19"/>
<stop stop-color="#6b6b6b" stop-opacity=".12549" offset=".6"/>
<stop stop-opacity=".12549" offset="1"/>
</radialGradient>
</defs>
<g>
<path d="m1.5 1.5v458.87c0 166.31 134.31 301.13 300 301.13 165.69 0 300-134.82 300-301.13v-458.87h-600z" fill="#e20909"/>
<path d="m24.464 458.9c-0.00466 0.65887 0 1.309 0 1.9688 0 26.915 3.9473 52.997 11.113 77.616l53.115-40.427c5.9656 34.316 19.898 65.804 40.033 92.535l-66.284 9.9316c24.114 41.246 58.45 75.662 99.623 99.798l10.894-65.846c26.16 19.43 56.785 32.988 90.129 38.983l-38.764 53.552c24.532 7.1505 50.327 11.113 77.178 11.113 22.548 0 44.464-2.7797 65.453-7.8753l-37.758-55.171c31.634-4.056 70.946-17.726 96.779-33.951l4.6377 64.884c44.899-23.769 82.477-59.647 108.55-103.08l-65.103-11.507c24.799-29.513 40.054-60.643 44.277-93.585l48.914 41.827c7.4157-24.977 11.288-51.423 11.288-78.797 0-0.65924 0.00474-1.3106 0-1.9688h-258.84v20.345h-36.401v-20.345h-258.84zm128.5 36.751h78.622v35.133h37.583v79.409c-57.48-12.45-102.89-57.366-116.2-114.54zm218.45 0h78.622c-13.319 57.176-58.724 102.09-116.2 114.54v-79.409h37.583v-35.133z" fill="#fff" fill-rule="evenodd" stroke="#000" stroke-width="4.79"/>
<g fill="#fff" fill-rule="evenodd" stroke="#000">
<path d="m475.19 133.74 28.552 309.31h-404.49l23.793-309.31h352.14-352.14-38.069v-104.69h86.608v33.311h85.015v-33.311h88.202v33.311h87.56v-33.311h85.657l-2.9e-4 104.69h-42.828z" stroke-width="4.7587"/>
<rect x="192.22" y="162.3" width="39.897" height="81.229" stroke-width="3.5831"/>
<rect x="365.74" y="162.29" width="39.897" height="81.229" stroke-width="3.5831"/>
<path d="m346.71 443.05v-109.45c0-42.828-95.174-42.828-95.174 0v109.45h95.174z" stroke-width="4.7587"/>
</g>
<path d="m1.5 1.5v458.87c0 166.31 134.31 301.13 300 301.13 165.69 0 300-134.82 300-301.13v-458.87h-600z" fill="url(#a)"/>
<path d="m1.5 1.5v458.87c0 166.31 134.31 301.13 300 301.13 165.69 0 300-134.82 300-301.13v-458.87h-600z" fill="none" stroke="#000" stroke-width="3"/>
</g>
</svg>
